X: 30334
T: GERMAN WALTZ
C:
%R: waltz
B: Elias Howe "The Musician's Companion" Part 3 1844 p.33 #4
S: http://imslp.org/wiki/The_Musician's_Companion_(Howe,_Elias)
S: https://archive.org/stream/firstthirdpartof03howe/#page/66/mode/1up
Z: 2016 John Chambers <jc:trillian.mit.edu>
N: The B in the first bar looks handwritten.
M: 3/8
L: 1/8
K: G
% - - - - - - - - - - - - - - - - - - - - - - - - -
|:\
[B3G3] | B3 | BAB | d2c | A3 | A3 | AGA | B2G |\
B3 | B3 | BAB | d2c | A>Bc | edF | G3- G3 |
e3 | d3 | c3 | B3 | A>^GA | dcA | G3 | G/A/B/c/d |\
e3 | d3 | c3 | B3 | A>GA | dcA | G3 | G3 :|
% - - - - - - - - - - - - - - - - - - - - - - - - -
